packages/calcite-ui-icons/icons/model-history-16.svg

<?xml version="1.0" encoding="UTF-8"?><svg id="icons" xmlns="http://www.w3.org/2000/svg" viewBox="0 0 16 16"><defs><style>.cls-1{fill:none;}.cls-1,.cls-2{stroke-width:0px;}</style></defs><path class="cls-2" d="M14.99127,7.50708c-.22443.25824-.47119.49188-.74213.70056.44739.25958.75171.7381.75171,1.29236,0,.82819-.67175,1.49957-1.50043,1.49957s-1.50043-.67139-1.50043-1.49957c0-.10138.01068-.2002.02985-.29596-.31415.05737-.6358.09595-.96875.09595-.59912,0-1.16547-.12-1.70386-.29999h-.35724v-.10986c-.52417-.21674-.99207-.52887-1.41663-.89014h-1.00525l-1.05255-1.05255c.26947-.37994.43268-.83789.45544-1.33429-.12329-.37799-.20264-.77142-.23682-1.18085-.39844-.84442-1.24713-1.43231-2.2442-1.43231-1.38074,0-2.5,1.11926-2.5,2.5s1.11926,2.5,2.5,2.5c.47614,0,.91541-.14032,1.29266-.3714l1.20734,1.20734v1.45703l-1.1239,1.1239c-.39386-.26239-.86591-.41687-1.3761-.41687-1.38074,0-2.5,1.11926-2.5,2.5s1.11926,2.5,2.5,2.5,2.49011-1.11932,2.49011-2.5c0-.50763-.1521-.97845-.41034-1.37274l1.12726-1.12726h2.29297v-1h2.05042c.23169,1.14105,1.24011,2,2.44958,2,1.38074,0,2.49011-1.11932,2.49011-2.5,0-.81769-.39478-1.5368-.99884-1.99292ZM3.50043,6.99951c-.82867,0-1.50043-.67133-1.50043-1.49951s.67175-1.49957,1.50043-1.49957,1.50043.67139,1.50043,1.49957-.67175,1.49951-1.50043,1.49951ZM3.50043,14.99957c-.82867,0-1.50043-.67139-1.50043-1.49957s.67175-1.49957,1.50043-1.49957,1.50043.67139,1.50043,1.49957-.67175,1.49957-1.50043,1.49957ZM8,10h-1v-1h1v1ZM11.05798,8c2.24115,0,3.94202-1.79095,3.94202-4,0-2.20917-1.70087-4-3.94202-4s-4.05798,1.79083-4.05798,4c0,2.20905,1.81683,4,4.05798,4ZM11,1c1.65411,0,3,1.34589,3,3s-1.34589,3-3,3-3-1.34589-3-3,1.34589-3,3-3ZM13,5h-3v-3h1v2h2v1Z"/><rect class="cls-1" width="16" height="16"/></svg>

<svg xmlns="http://www.w3.org/2000/svg" viewBox="0 0 16 16"><path d="M14.991 7.507a5.12 5.12 0 0 1-.742.7c.448.26.752.739.752 1.293a1.5 1.5 0 1 1-2.971-.296 5.37 5.37 0 0 1-.969.096c-.599 0-1.165-.12-1.704-.3H9v-.11A5.353 5.353 0 0 1 7.583 8H6.578L5.526 6.947c.269-.38.432-.837.455-1.334a5.185 5.185 0 0 1-.237-1.18A2.479 2.479 0 0 0 3.5 3a2.5 2.5 0 1 0 0 5c.476 0 .915-.14 1.293-.371L6 8.836v1.457l-1.124 1.124A2.472 2.472 0 0 0 3.5 11a2.5 2.5 0 1 0 0 5c1.38 0 2.49-1.12 2.49-2.5a2.5 2.5 0 0 0-.41-1.373L6.707 11H9v-1h2.05a2.5 2.5 0 0 0 2.45 2c1.38 0 2.49-1.12 2.49-2.5a2.49 2.49 0 0 0-.999-1.993zM3.501 7a1.5 1.5 0 1 1-.002-3A1.5 1.5 0 0 1 3.5 7zm0 8a1.5 1.5 0 1 1-.001-3 1.5 1.5 0 0 1 0 3zM8 10H7V9h1v1zm3.058-2C13.299 8 15 6.209 15 4c0-2.21-1.7-4-3.942-4S7 1.79 7 4c0 2.209 1.817 4 4.058 4zM11 1c1.654 0 3 1.346 3 3s-1.346 3-3 3-3-1.346-3-3 1.346-3 3-3zm2 4h-3V2h1v2h2v1z" stroke-width="0"/><path stroke-width="0" fill="none" d="M0 0h16v16H0z"/></svg>
